X:1
T:Title
%%score { ( 1 4 ) | ( 2 3 ) }
L:1/8
M:4/4
K:Ab
V:1 treble nm="Grand Piano"
V:4 treble 
V:2 bass 
V:3 bass 
V:1
 z4 z2[Q:1/4=100] [CE][CE] | F2 [EA]2 c<c B2 | [CA]6 [CA][EG] | [EG]2 [DF][DF] [=DB]2 [FA]2 | %4
 G6 FE | [CE]2 [CE]2 [EA]Bcc |[M:9/8] [=Ec]3 [GB] [FA]2- [FA][FA][Fd] |[M:4/4] c2 Ac B2 FG | %8
[M:3/4] [A,CA]6 |[M:1/4] [Ec]>[Ec] |[M:4/4] [Ec]4 .A2 e>e | e4 z4 | %12
 [CFA]2 [CFA]2 [A,EA][A,EA][EB][Ec] | [EB]2 B2 z4 | e4 z4 | [Ae]4 z4 | %16
 [CEA]2 [CEA][CEA] [EAc]2 [DEB]2 |[M:3/4] [CEA]6 |] %18
V:2
 z4 z2 [A,,A,][A,,A,] | [D,D]2 [C,A,]2 [E,A,E]<[E,A,E] [E,G,D]2 | [A,,A,]6 [A,,A,][C,A,] | %3
 [D,A,]2 [D,A,][D,A,] [B,,B,]2 [=D,B,]2 | [E,B,E]6 [E,G,D][E,G,D] | %5
 [A,,A,]2 [A,,A,]2 [C,A,][E,G,E][A,E][A,E] |[M:9/8] [C,G,]3 [=E,C] [F,C]2- [F,C][D,D][D,A,] | %7
[M:4/4] [E,A,E]2 [E,CE][E,A,E] [E,G,D]2 [E,D]-[E,B,D] |[M:3/4] A,,6 |[M:1/4] A,>A, | %10
[M:4/4] A,2 A,2[K:treble] .[A,CE]2 [A,CA]>[A,CA] | [A,C]2 z2[K:bass] z4 | %12
 F,2 F,2 C,C,[B,,G,][A,,A,] | .[B,,G,]2 B,,-[B,,A,] [E,G,E]2[K:treble] [A,E]>[A,B,E] | %14
 A2- [A,A]2 .[A,EA]2[K:bass] [D,D]>[F,D] | [A,C]2 A,2 .A,2 D,D, | E,2 E,E, E,2 E,2 |[M:3/4] A,,6 |] %18
V:3
 x8 | x8 | x8 | x8 | x8 | x8 |[M:9/8] x9 |[M:4/4] z4 z2 .A,2 |[M:3/4] x6 |[M:1/4] x2 | %10
[M:4/4] x4[K:treble] x4 | A2- [A,A]2[K:bass] .A,2 E,E, | x8 | z2 .F,2 z4[K:treble] | %14
 [A,C]2 z2 z4[K:bass] | x8 | x8 |[M:3/4] x6 |] %18
V:4
 x8 | x8 | x8 | x8 | x8 | x8 |[M:9/8] x9 |[M:4/4] x8 |[M:3/4] x6 |[M:1/4] x2 |[M:4/4] x8 | %11
 z2 C2 .[EAc]2 [DGB][DGB] | x8 | z _G,=DF B2 c>d | z2 C2 .c2 [Af]>[Af] | z2 C2 .[EAc]2 [DFB][DFB] | %16
 x8 |[M:3/4] x6 |] %18

